**kern	**kern	**kern	**kern
*staff3	*staff4	*staff1	*staff2
*clefF4	*clefF4	*clefG2	*clefG2
*k[f#c#]	*k[f#c#]	*k[f#c#]	*k[f#c#]
*M2/4	*M2/4	*M2/4	*M2/4
*D:	*D:	*D:	*D:
=-	=-	=-	=-
*M6/8	*M6/8	*M6/8	*M6/8
2.r	4DD 4D	(8f#L 8ff#	2.r
.	.	8g 8gg	.
.	4r	8g#J 8gg#	.
.	.	8aL) 8aa	.
.	8r	8f#' 8ff#'	.
.	8AAA 8AA	8e'J 8ee'	.
=340	=340	=340	=340
2.r	(8BBBL 8BB	[4.d [4.dd	2.r
.	8CC 8C	.	.
.	8CC#J 8C#	.	.
.	8DDL) 8D	4d] 4dd]	.
.	8BBB' 8BB'	.	.
.	8AAA'J 8AA'	([8dd [8ddd	.
=341	=341	=341	=341
2.r	[4.GGG [4.GG	8ddL] 8ddd]	2.r
.	.	8cc# 8ccc#	.
.	.	8ddJ 8ddd	.
.	4GGG] 4GG]	8eeL) 8eee	.
.	.	8dd' 8ddd'	.
.	([8GG [8G	8b'J 8bb'	.
=342	=342	=342	=342
2.r	8GGL] 8G]	[4.a [4.aa	2.r
.	8FF# 8F#	.	.
.	8GGJ 8G	.	.
.	8AAL) 8A	4a] 4aa]	.
.	8GG' 8G'	.	.
.	8EE'J 8E'	([8a [8aa	.
=343	=343	=343	=343
2.r	[4.DD [4.D	8aL] 8aa]	2.r
.	.	8g 8gg	.
.	.	8f#J 8ff#	.
.	4DD] 4D]	8eL) 8ee	.
.	.	8d' 8dd'	.
.	([8DD [8D	8f#'J 8ff#'	.
=344	=344	=344	=344
2.r	8DDL] 8D]	[4.g [4.gg	2.r
.	8CC# 8C#	.	.
.	8BBBJ 8BB	.	.
.	8AAAL) 8AA	4g] 4gg]	.
.	8BBB' 8BB'	.	.
.	8GGG'J 8GG'	8e 8ee	.
=345	=345	=345	=345
2.r	[4.FFF# [4.FF#	(8aL 8aa	2.r
.	.	8b 8bb	.
.	.	8cc#J 8ccc#	.
.	4FFF#] 4FF#]	8ddL) 8ddd	.
.	.	8ee' 8eee'	.
.	8GGG# 8GG#	8dd'J 8ddd'	.
=346	=346	=346	=346
2.r	(8AAAL 8AA	(8cc#L 8ccc#	2.r
.	8BBB 8BB	8b 8bb	.
.	8CC#J 8C#	8aJ) 8aa	.
.	8DDL) 8D	4r	.
.	8EE' 8E'	.	.
.	8CC#'J 8C#'	([8A [8a	.
=347:|!|:	=347:|!|:	=347:|!|:	=347:|!|:
*-	*-	*-	*-
